X:1

T:Battle of Aughrim, The [1]

M:4/4

L:1/8

K:Ador

G | E2 A2A2 Bd | e2d2c2A2 | B2G2 GF GA | BG AG E2D2 |

E2A2A2 Bd | e2 ed e2 ag | e2d2 Be dB | A4 A3 :|

|: e | a2 ag e2 e/f/g | a2 ag e2 fg | a2 af g2 ge | de dB G4 |

a2 ag e2 e/f/g | a2 ag e2d2 | B2 e/f/e d2B2 | A4 A3 :|

 

BATTLE OF AUGHRIM [2], THE. Irish, March (2/4 time). A Dorian. Standard tuning. One part. O’Neill (1922) says: “To the musical antiquary war cries and battle pieces may not be without interest. To the modern ear they possess but little attraction; yet when Martin O'Reilly, the blind piper from Galway, at the Dublin feis in 1901 played a descriptive selection entitled "The Battle of Aughrim 1691" in which the blare of trumpets, battle onslaught, and wailing of the women were imitated, his performance was rapturously applauded. Source for notated version: copied from Walker’s Historical Memoirs of the Irish Bards (London, 1786) [O’Neill]. O’Neill (Waifs and Strays of Gaelic Melody), 1922.

